X: 22
T:Fanny Frail as played by GKW
M:4/4
L:1/8
A:Evesham, Worcestershire
P:ABABABAC
N:
K:D
I:speed 400
L:1/8
P:A
     F2 A2 G2 B2 | A2 de f2 d2 | g2  f2 e2 d2 | edcB  AGFE |\
     DFAF  G2 B2 | A2 de f2 d2   |    gfed   cABc |    e2 d2 d4   ||\
P:B
     e2 A2 e2 A2 | g2 f2 ec A2 |    g2  f2 e2 d2 | edcB  AGFE |\
     DFAF G2 B2 | A2 de f2 d2   |    gfed   cABc  |    e2 d2 d4   ||\
P:C
a2 | f6       a2 | f6       a2 |    d2 a2 g2 f2 |    e6      ee |     ee
ee   eeee | eeee   eega|    d'bag  fedc |    d6         ||
